public/images/logos/auth_providers/x-twitter-dark.svg

<svg xmlns="http://www.w3.org/2000/svg" width="16" height="16" fill="none"><g clip-path="url(#a)"><path fill="#fff" d="M12.6.75h2.454l-5.36 6.142L16 15.25h-4.937l-3.867-5.07-4.425 5.07H.316l5.733-6.57L0 .75h5.063l3.495 4.633zm-.86 13.028h1.36L4.323 2.145H2.865z"/></g><defs><clipPath id="a"><path fill="#fff" d="M0 0h16v16H0z"/></clipPath></defs></svg>

<svg width="16" height="16" viewBox="0 0 16 16" fill="none" xmlns="http://www.w3.org/2000/svg">
<g clip-path="url(#clip0_219_9)">
<path d="M12.6 0.75H15.054L9.694 6.892L16 15.25H11.063L7.196 10.18L2.771 15.25H0.316L6.049 8.68L0 0.75H5.063L8.558 5.383L12.6 0.75ZM11.74 13.778H13.1L4.323 2.145H2.865L11.74 13.778Z" fill="white"/>
</g>
<defs>
<clipPath id="clip0_219_9">
<rect width="16" height="16" fill="white"/>
</clipPath>
</defs>
</svg>
